docs/.gitbook/assets/icon-credit-card-16@light.svg

<svg width="32" height="32" viewBox="0 0 16 16" fill="none" xmlns="http://www.w3.org/2000/svg">
<rect x="0" y="0" width="16" height="16" fill="#fff"/>
<path fill-rule="evenodd" clip-rule="evenodd" d="M3.75 3.5C3.05964 3.5 2.5 4.05964 2.5 4.75V6H13.5V4.75C13.5 4.05964 12.9404 3.5 12.25 3.5H3.75ZM13.5 7.5H2.5V11.25C2.5 11.9404 3.05964 12.5 3.75 12.5H12.25C12.9404 12.5 13.5 11.9404 13.5 11.25V7.5ZM1 4.75C1 3.23122 2.23122 2 3.75 2H12.25C13.7688 2 15 3.23122 15 4.75V11.25C15 12.7688 13.7688 14 12.25 14H3.75C2.23122 14 1 12.7688 1 11.25V4.75ZM4 9.75C4 9.33579 4.33579 9 4.75 9H6.25C6.66421 9 7 9.33579 7 9.75C7 10.1642 6.66421 10.5 6.25 10.5H4.75C4.33579 10.5 4 10.1642 4 9.75Z" fill="#000"/>
</svg>

<svg xmlns="http://www.w3.org/2000/svg" width="32" height="32" fill="none" viewBox="0 0 16 16"><path fill="#fff" d="M0 0h16v16H0z"/><path fill="#000" fill-rule="evenodd" d="M3.75 3.5c-.69 0-1.25.56-1.25 1.25V6h11V4.75c0-.69-.56-1.25-1.25-1.25zm9.75 4h-11v3.75c0 .69.56 1.25 1.25 1.25h8.5c.69 0 1.25-.56 1.25-1.25zM1 4.75A2.75 2.75 0 0 1 3.75 2h8.5A2.75 2.75 0 0 1 15 4.75v6.5A2.75 2.75 0 0 1 12.25 14h-8.5A2.75 2.75 0 0 1 1 11.25zm3 5A.75.75 0 0 1 4.75 9h1.5a.75.75 0 0 1 0 1.5h-1.5A.75.75 0 0 1 4 9.75" clip-rule="evenodd"/></svg>
